X: 1
T: G\aangl\aat i D efter Ekars Anders Andersson, Dalarna
O: efter Johnny Soling
Z: 2006 John Chambers <jc@trillian.mit.edu>
S: handwritten MS labelled "CMA" (Christine Anderson)
M: C|
L: 1/8
K: D
A,2 \
| D2DE TFEFG | A2 (3ABc d2cd | e2ed Tc2Ac | B2BG TBAAF \
| D2DE TFEFG | A2 (3ABc d2cd | e2ed Tc2Ac |1 B2AG HA4 :|2 B2AG HA4 e2 ||
|: f2fd e2ec | TABAF D2DF | E3EC ECEC | EDDF A2f2- \
| Tf2ed Tf2ed | ABAF D2DF | E2EC ECEC | C2D2 HD4 :|
